assets/1. 1-F/Atm sign/Color/Atm.Sign-color.svg

<svg width="100%" height="100%" viewBox="0 0 32 32" fill="none" xmlns="http://www.w3.org/2000/svg">
<g filter="url(#filter0_ii_18590_346)">
<rect x="2.06604" y="2.0625" width="27.875" height="27.875" rx="3.6" fill="url(#paint0_linear_18590_346)"/>
<rect x="2.06604" y="2.0625" width="27.875" height="27.875" rx="3.6" fill="url(#paint1_radial_18590_346)"/>
</g>
<g filter="url(#filter1_f_18590_346)">
<path d="M28.2535 4.5625V27.4375" stroke="url(#paint2_linear_18590_346)" stroke-width="1.5" stroke-linecap="round"/>
</g>
<g filter="url(#filter2_f_18590_346)">
<path d="M5.52991 3.875H27.3112" stroke="url(#paint3_linear_18590_346)" stroke-width="1.5" stroke-linecap="round"/>
</g>
<g filter="url(#filter3_f_18590_346)">
<path fill-rule="evenodd" clip-rule="evenodd" d="M9.91542 17.9457C9.95419 17.9457 9.98946 17.9681 10.0059 18.0032L10.358 18.7529C10.5341 19.1278 10.9807 19.2891 11.3557 19.113C11.7306 18.9369 11.8918 18.4903 11.7158 18.1153L9.24427 12.8522C8.86377 12.0419 7.70884 12.0489 7.33812 12.8637L4.94496 18.1235C4.77342 18.5005 4.94 18.9452 5.31702 19.1168C5.69405 19.2883 6.13874 19.1217 6.31029 18.7447L6.64718 18.0043C6.66342 17.9686 6.699 17.9457 6.7382 17.9457H9.91542ZM9.11712 16.4457C9.19039 16.4457 9.23878 16.3695 9.20764 16.3032L8.39224 14.5668C8.35601 14.4896 8.24601 14.4903 8.21071 14.5679L7.42066 16.3043C7.39053 16.3705 7.43894 16.4457 7.51168 16.4457H9.11712Z" fill="#579FFF"/>
</g>
<g filter="url(#filter4_f_18590_346)">
<path d="M12.1757 12.2485C11.7614 12.2485 11.4257 12.5843 11.4257 12.9985C11.4257 13.4127 11.7614 13.7485 12.1757 13.7485L14.0659 13.7485C14.1211 13.7485 14.1659 13.7933 14.1659 13.8485V18.4505C14.1659 18.8647 14.5017 19.2005 14.9159 19.2005C15.3301 19.2005 15.6659 18.8647 15.6659 18.4505V13.8485C15.6659 13.7933 15.7106 13.7485 15.7659 13.7485L17.6561 13.7485C18.0703 13.7485 18.4061 13.4127 18.4061 12.9985C18.4061 12.5843 18.0703 12.2485 17.6561 12.2485H12.1757Z" fill="#579FFF"/>
</g>
<g filter="url(#filter5_f_18590_346)">
<path fill-rule="evenodd" clip-rule="evenodd" d="M20.1939 12.2993C20.4825 12.1874 20.8102 12.2642 21.0189 12.4928L23.2888 14.9784C23.3278 15.0212 23.3948 15.022 23.4348 14.9802L25.8311 12.4796C26.043 12.2585 26.368 12.1885 26.6522 12.3026C26.9364 12.4168 27.1226 12.6923 27.1226 12.9986V18.4528C27.1226 18.867 26.7868 19.2028 26.3726 19.2028C25.9583 19.2028 25.6226 18.867 25.6226 18.4528V15.1141C25.6226 15.024 25.5127 14.9798 25.4504 15.0449L23.8892 16.6741C23.7455 16.8239 23.5462 16.9076 23.3386 16.9051C23.1311 16.9026 22.9338 16.8142 22.7938 16.6609L21.3889 15.1224C21.3274 15.055 21.2151 15.0986 21.2151 15.1899L21.2151 18.4528C21.2151 18.867 20.8793 19.2028 20.4651 19.2028C20.0509 19.2028 19.7151 18.867 19.7151 18.4528L19.7151 12.9986C19.7151 12.689 19.9053 12.4113 20.1939 12.2993Z" fill="#579FFF"/>
</g>
<g filter="url(#filter6_i_18590_346)">
<path fill-rule="evenodd" clip-rule="evenodd" d="M9.91542 17.9457C9.95419 17.9457 9.98946 17.9681 10.0059 18.0032L10.358 18.7529C10.5341 19.1278 10.9807 19.2891 11.3557 19.113C11.7306 18.9369 11.8918 18.4903 11.7158 18.1153L9.24427 12.8522C8.86377 12.0419 7.70884 12.0489 7.33812 12.8637L4.94496 18.1235C4.77342 18.5005 4.94 18.9452 5.31702 19.1168C5.69405 19.2883 6.13874 19.1217 6.31029 18.7447L6.64718 18.0043C6.66342 17.9686 6.699 17.9457 6.7382 17.9457H9.91542ZM9.11712 16.4457C9.19039 16.4457 9.23878 16.3695 9.20764 16.3032L8.39224 14.5668C8.35601 14.4896 8.24601 14.4903 8.21071 14.5679L7.42066 16.3043C7.39053 16.3705 7.43894 16.4457 7.51168 16.4457H9.11712Z" fill="#E3DFEB"/>
</g>
<g filter="url(#filter7_i_18590_346)">
<path d="M12.1757 12.2485C11.7614 12.2485 11.4257 12.5843 11.4257 12.9985C11.4257 13.4127 11.7614 13.7485 12.1757 13.7485L14.0659 13.7485C14.1211 13.7485 14.1659 13.7933 14.1659 13.8485V18.4505C14.1659 18.8647 14.5017 19.2005 14.9159 19.2005C15.3301 19.2005 15.6659 18.8647 15.6659 18.4505V13.8485C15.6659 13.7933 15.7106 13.7485 15.7659 13.7485L17.6561 13.7485C18.0703 13.7485 18.4061 13.4127 18.4061 12.9985C18.4061 12.5843 18.0703 12.2485 17.6561 12.2485H12.1757Z" fill="#E3DFEB"/>
</g>
<g filter="url(#filter8_i_18590_346)">
<path fill-rule="evenodd" clip-rule="evenodd" d="M20.1939 12.2993C20.4825 12.1874 20.8102 12.2642 21.0189 12.4928L23.2888 14.9784C23.3278 15.0212 23.3948 15.022 23.4348 14.9802L25.8311 12.4796C26.043 12.2585 26.368 12.1885 26.6522 12.3026C26.9364 12.4168 27.1226 12.6923 27.1226 12.9986V18.4528C27.1226 18.867 26.7868 19.2028 26.3726 19.2028C25.9583 19.2028 25.6226 18.867 25.6226 18.4528V15.1141C25.6226 15.024 25.5127 14.9798 25.4504 15.0449L23.8892 16.6741C23.7455 16.8239 23.5462 16.9076 23.3386 16.9051C23.1311 16.9026 22.9338 16.8142 22.7938 16.6609L21.3889 15.1224C21.3274 15.055 21.2151 15.0986 21.2151 15.1899L21.2151 18.4528C21.2151 18.867 20.8793 19.2028 20.4651 19.2028C20.0509 19.2028 19.7151 18.867 19.7151 18.4528L19.7151 12.9986C19.7151 12.689 19.9053 12.4113 20.1939 12.2993Z" fill="#E3DFEB"/>
</g>
<defs>
<filter id="filter0_ii_18590_346" x="2.06604" y="1.0625" width="28.875" height="28.875" filterUnits="userSpaceOnUse" color-interpolation-filters="sRGB">
<feFlood flood-opacity="0" result="BackgroundImageFix"/>
<feBlend mode="normal" in="SourceGraphic" in2="BackgroundImageFix" result="shape"/>
<feColorMatrix in="SourceAlpha" type="matrix" values="0 0 0 0 0 0 0 0 0 0 0 0 0 0 0 0 0 0 127 0" result="hardAlpha"/>
<feOffset dx="1" dy="-1"/>
<feGaussianBlur stdDeviation="1.5"/>
<feComposite in2="hardAlpha" operator="arithmetic" k2="-1" k3="1"/>
<feColorMatrix type="matrix" values="0 0 0 0 0.188235 0 0 0 0 0.470588 0 0 0 0 0.843137 0 0 0 1 0"/>
<feBlend mode="normal" in2="shape" result="effect1_innerShadow_18590_346"/>
<feColorMatrix in="SourceAlpha" type="matrix" values="0 0 0 0 0 0 0 0 0 0 0 0 0 0 0 0 0 0 127 0" result="hardAlpha"/>
<feOffset dy="-1"/>
<feGaussianBlur stdDeviation="1.5"/>
<feComposite in2="hardAlpha" operator="arithmetic" k2="-1" k3="1"/>
<feColorMatrix type="matrix" values="0 0 0 0 0.27451 0 0 0 0 0.34902 0 0 0 0 0.8 0 0 0 1 0"/>
<feBlend mode="normal" in2="effect1_innerShadow_18590_346" result="effect2_innerShadow_18590_346"/>
</filter>
<filter id="filter1_f_18590_346" x="25.5035" y="1.8125" width="5.5" height="28.375" filterUnits="userSpaceOnUse" color-interpolation-filters="sRGB">
<feFlood flood-opacity="0" result="BackgroundImageFix"/>
<feBlend mode="normal" in="SourceGraphic" in2="BackgroundImageFix" result="shape"/>
<feGaussianBlur stdDeviation="1" result="effect1_foregroundBlur_18590_346"/>
</filter>
<filter id="filter2_f_18590_346" x="2.77991" y="1.125" width="27.2812" height="5.5" filterUnits="userSpaceOnUse" color-interpolation-filters="sRGB">
<feFlood flood-opacity="0" result="BackgroundImageFix"/>
<feBlend mode="normal" in="SourceGraphic" in2="BackgroundImageFix" result="shape"/>
<feGaussianBlur stdDeviation="1" result="effect1_foregroundBlur_18590_346"/>
</filter>
<filter id="filter3_f_18590_346" x="3.87744" y="11.2485" width="8.90967" height="8.93579" filterUnits="userSpaceOnUse" color-interpolation-filters="sRGB">
<feFlood flood-opacity="0" result="BackgroundImageFix"/>
<feBlend mode="normal" in="SourceGraphic" in2="BackgroundImageFix" result="shape"/>
<feGaussianBlur stdDeviation="0.5" result="effect1_foregroundBlur_18590_346"/>
</filter>
<filter id="filter4_f_18590_346" x="10.4257" y="11.2485" width="8.98047" height="8.9519" filterUnits="userSpaceOnUse" color-interpolation-filters="sRGB">
<feFlood flood-opacity="0" result="BackgroundImageFix"/>
<feBlend mode="normal" in="SourceGraphic" in2="BackgroundImageFix" result="shape"/>
<feGaussianBlur stdDeviation="0.5" result="effect1_foregroundBlur_18590_346"/>
</filter>
<filter id="filter5_f_18590_346" x="18.7151" y="11.2485" width="9.40747" height="8.95422" filterUnits="userSpaceOnUse" color-interpolation-filters="sRGB">
<feFlood flood-opacity="0" result="BackgroundImageFix"/>
<feBlend mode="normal" in="SourceGraphic" in2="BackgroundImageFix" result="shape"/>
<feGaussianBlur stdDeviation="0.5" result="effect1_foregroundBlur_18590_346"/>
</filter>
<filter id="filter6_i_18590_346" x="4.47744" y="12.2485" width="7.30967" height="7.33579" filterUnits="userSpaceOnUse" color-interpolation-filters="sRGB">
<feFlood flood-opacity="0" result="BackgroundImageFix"/>
<feBlend mode="normal" in="SourceGraphic" in2="BackgroundImageFix" result="shape"/>
<feColorMatrix in="SourceAlpha" type="matrix" values="0 0 0 0 0 0 0 0 0 0 0 0 0 0 0 0 0 0 127 0" result="hardAlpha"/>
<feOffset dx="-0.4" dy="0.4"/>
<feGaussianBlur stdDeviation="0.375"/>
<feComposite in2="hardAlpha" operator="arithmetic" k2="-1" k3="1"/>
<feColorMatrix type="matrix" values="0 0 0 0 0.764706 0 0 0 0 0.741176 0 0 0 0 0.811765 0 0 0 1 0"/>
<feBlend mode="normal" in2="shape" result="effect1_innerShadow_18590_346"/>
</filter>
<filter id="filter7_i_18590_346" x="11.0257" y="12.2485" width="7.38047" height="7.3519" filterUnits="userSpaceOnUse" color-interpolation-filters="sRGB">
<feFlood flood-opacity="0" result="BackgroundImageFix"/>
<feBlend mode="normal" in="SourceGraphic" in2="BackgroundImageFix" result="shape"/>
<feColorMatrix in="SourceAlpha" type="matrix" values="0 0 0 0 0 0 0 0 0 0 0 0 0 0 0 0 0 0 127 0" result="hardAlpha"/>
<feOffset dx="-0.4" dy="0.4"/>
<feGaussianBlur stdDeviation="0.375"/>
<feComposite in2="hardAlpha" operator="arithmetic" k2="-1" k3="1"/>
<feColorMatrix type="matrix" values="0 0 0 0 0.764706 0 0 0 0 0.741176 0 0 0 0 0.811765 0 0 0 1 0"/>
<feBlend mode="normal" in2="shape" result="effect1_innerShadow_18590_346"/>
</filter>
<filter id="filter8_i_18590_346" x="19.3151" y="12.2485" width="7.80747" height="7.35422" filterUnits="userSpaceOnUse" color-interpolation-filters="sRGB">
<feFlood flood-opacity="0" result="BackgroundImageFix"/>
<feBlend mode="normal" in="SourceGraphic" in2="BackgroundImageFix" result="shape"/>
<feColorMatrix in="SourceAlpha" type="matrix" values="0 0 0 0 0 0 0 0 0 0 0 0 0 0 0 0 0 0 127 0" result="hardAlpha"/>
<feOffset dx="-0.4" dy="0.4"/>
<feGaussianBlur stdDeviation="0.375"/>
<feComposite in2="hardAlpha" operator="arithmetic" k2="-1" k3="1"/>
<feColorMatrix type="matrix" values="0 0 0 0 0.764706 0 0 0 0 0.741176 0 0 0 0 0.811765 0 0 0 1 0"/>
<feBlend mode="normal" in2="shape" result="effect1_innerShadow_18590_346"/>
</filter>
<linearGradient id="paint0_linear_18590_346" x1="16.0035" y1="5.63701" x2="16.0035" y2="38.8897" gradientUnits="userSpaceOnUse">
<stop stop-color="#5CB7FF"/>
<stop offset="1" stop-color="#4878DD"/>
</linearGradient>
<radialGradient id="paint1_radial_18590_346" cx="0" cy="0" r="1" gradientUnits="userSpaceOnUse" gradientTransform="translate(27.7223 4.15625) rotate(136.771) scale(2.14444 2.50466)">
<stop stop-color="#7BD7FF"/>
<stop offset="1" stop-color="#7BD7FF" stop-opacity="0"/>
</radialGradient>
<linearGradient id="paint2_linear_18590_346" x1="28.7535" y1="4.5625" x2="28.7535" y2="27.4375" gradientUnits="userSpaceOnUse">
<stop stop-color="#7FD9FF"/>
<stop offset="1" stop-color="#639DF4"/>
</linearGradient>
<linearGradient id="paint3_linear_18590_346" x1="28.4674" y1="4.12502" x2="2.93616" y2="4.12502" gradientUnits="userSpaceOnUse">
<stop stop-color="#7DD8FF"/>
<stop offset="1" stop-color="#5DB6FF"/>
</linearGradient>
</defs>
</svg>

<svg width="100%" height="100%" viewBox="0 0 32 32" xmlns="http://www.w3.org/2000/svg"><g filter="url(#a)"><rect width="27.875" height="27.875" x="2.066" y="2.063" fill="url(#b)" rx="3.6"/><rect width="27.875" height="27.875" x="2.066" y="2.063" fill="url(#c)" rx="3.6"/></g><g filter="url(#d)"><path stroke="url(#e)" stroke-linecap="round" stroke-width="1.5" d="M28.254 4.563v22.875"/></g><g filter="url(#f)"><path stroke="url(#g)" stroke-linecap="round" stroke-width="1.5" d="M5.53 3.875H27.31"/></g><g filter="url(#h)"><path fill="#579FFF" fill-rule="evenodd" d="M9.915 17.946a.1.1 0 0 1 .09.057l.353.75a.75.75 0 0 0 1.358-.638l-2.472-5.263c-.38-.81-1.535-.803-1.906.012l-2.393 5.26a.75.75 0 0 0 1.365.62l.337-.74a.1.1 0 0 1 .091-.058zm-.798-1.5a.1.1 0 0 0 .09-.143l-.815-1.736a.1.1 0 0 0-.181 0l-.79 1.737a.1.1 0 0 0 .09.142z" clip-rule="evenodd"/></g><g filter="url(#i)"><path fill="#579FFF" d="M12.176 12.249a.75.75 0 1 0 0 1.5h1.89a.1.1 0 0 1 .1.1v4.602a.75.75 0 0 0 1.5 0v-4.603a.1.1 0 0 1 .1-.1h1.89a.75.75 0 0 0 0-1.5z"/></g><g filter="url(#j)"><path fill="#579FFF" fill-rule="evenodd" d="M20.194 12.3a.75.75 0 0 1 .825.193l2.27 2.485a.1.1 0 0 0 .146.002l2.396-2.5a.75.75 0 0 1 1.292.519v5.454a.75.75 0 0 1-1.5 0v-3.339a.1.1 0 0 0-.173-.07l-1.56 1.63a.75.75 0 0 1-1.096-.013l-1.405-1.539a.1.1 0 0 0-.174.068v3.263a.75.75 0 0 1-1.5 0v-5.454c0-.31.19-.588.479-.7" clip-rule="evenodd"/></g><g filter="url(#k)"><path fill="#E3DFEB" fill-rule="evenodd" d="M9.915 17.946a.1.1 0 0 1 .09.057l.353.75a.75.75 0 0 0 1.358-.638l-2.472-5.263c-.38-.81-1.535-.803-1.906.012l-2.393 5.26a.75.75 0 0 0 1.365.62l.337-.74a.1.1 0 0 1 .091-.058zm-.798-1.5a.1.1 0 0 0 .09-.143l-.815-1.736a.1.1 0 0 0-.181 0l-.79 1.737a.1.1 0 0 0 .09.142z" clip-rule="evenodd"/></g><g filter="url(#l)"><path fill="#E3DFEB" d="M12.176 12.249a.75.75 0 1 0 0 1.5h1.89a.1.1 0 0 1 .1.1v4.602a.75.75 0 0 0 1.5 0v-4.603a.1.1 0 0 1 .1-.1h1.89a.75.75 0 0 0 0-1.5z"/></g><g filter="url(#m)"><path fill="#E3DFEB" fill-rule="evenodd" d="M20.194 12.3a.75.75 0 0 1 .825.193l2.27 2.485a.1.1 0 0 0 .146.002l2.396-2.5a.75.75 0 0 1 1.292.519v5.454a.75.75 0 0 1-1.5 0v-3.339a.1.1 0 0 0-.173-.07l-1.56 1.63a.75.75 0 0 1-1.096-.013l-1.405-1.539a.1.1 0 0 0-.174.068v3.263a.75.75 0 0 1-1.5 0v-5.454c0-.31.19-.588.479-.7" clip-rule="evenodd"/></g><defs><filter id="a" width="28.875" height="28.875" x="2.066" y="1.063" color-interpolation-filters="sRGB" filterUnits="userSpaceOnUse"><feFlood flood-opacity="0" result="BackgroundImageFix"/><feBlend in="SourceGraphic" in2="BackgroundImageFix" result="shape"/><feColorMatrix in="SourceAlpha" result="hardAlpha" values="0 0 0 0 0 0 0 0 0 0 0 0 0 0 0 0 0 0 127 0"/><feOffset dx="1" dy="-1"/><feGaussianBlur stdDeviation="1.5"/><feComposite in2="hardAlpha" k2="-1" k3="1" operator="arithmetic"/><feColorMatrix values="0 0 0 0 0.188235 0 0 0 0 0.470588 0 0 0 0 0.843137 0 0 0 1 0"/><feBlend in2="shape" result="effect1_innerShadow_18590_346"/><feColorMatrix in="SourceAlpha" result="hardAlpha" values="0 0 0 0 0 0 0 0 0 0 0 0 0 0 0 0 0 0 127 0"/><feOffset dy="-1"/><feGaussianBlur stdDeviation="1.5"/><feComposite in2="hardAlpha" k2="-1" k3="1" operator="arithmetic"/><feColorMatrix values="0 0 0 0 0.27451 0 0 0 0 0.34902 0 0 0 0 0.8 0 0 0 1 0"/><feBlend in2="effect1_innerShadow_18590_346" result="effect2_innerShadow_18590_346"/></filter><filter id="d" width="5.5" height="28.375" x="25.503" y="1.813" color-interpolation-filters="sRGB" filterUnits="userSpaceOnUse"><feFlood flood-opacity="0" result="BackgroundImageFix"/><feBlend in="SourceGraphic" in2="BackgroundImageFix" result="shape"/><feGaussianBlur result="effect1_foregroundBlur_18590_346" stdDeviation="1"/></filter><filter id="f" width="27.281" height="5.5" x="2.78" y="1.125" color-interpolation-filters="sRGB" filterUnits="userSpaceOnUse"><feFlood flood-opacity="0" result="BackgroundImageFix"/><feBlend in="SourceGraphic" in2="BackgroundImageFix" result="shape"/><feGaussianBlur result="effect1_foregroundBlur_18590_346" stdDeviation="1"/></filter><filter id="h" width="8.91" height="8.936" x="3.877" y="11.248" color-interpolation-filters="sRGB" filterUnits="userSpaceOnUse"><feFlood flood-opacity="0" result="BackgroundImageFix"/><feBlend in="SourceGraphic" in2="BackgroundImageFix" result="shape"/><feGaussianBlur result="effect1_foregroundBlur_18590_346" stdDeviation=".5"/></filter><filter id="i" width="8.98" height="8.952" x="10.426" y="11.248" color-interpolation-filters="sRGB" filterUnits="userSpaceOnUse"><feFlood flood-opacity="0" result="BackgroundImageFix"/><feBlend in="SourceGraphic" in2="BackgroundImageFix" result="shape"/><feGaussianBlur result="effect1_foregroundBlur_18590_346" stdDeviation=".5"/></filter><filter id="j" width="9.407" height="8.954" x="18.715" y="11.248" color-interpolation-filters="sRGB" filterUnits="userSpaceOnUse"><feFlood flood-opacity="0" result="BackgroundImageFix"/><feBlend in="SourceGraphic" in2="BackgroundImageFix" result="shape"/><feGaussianBlur result="effect1_foregroundBlur_18590_346" stdDeviation=".5"/></filter><filter id="k" width="7.31" height="7.336" x="4.477" y="12.248" color-interpolation-filters="sRGB" filterUnits="userSpaceOnUse"><feFlood flood-opacity="0" result="BackgroundImageFix"/><feBlend in="SourceGraphic" in2="BackgroundImageFix" result="shape"/><feColorMatrix in="SourceAlpha" result="hardAlpha" values="0 0 0 0 0 0 0 0 0 0 0 0 0 0 0 0 0 0 127 0"/><feOffset dx="-.4" dy=".4"/><feGaussianBlur stdDeviation=".375"/><feComposite in2="hardAlpha" k2="-1" k3="1" operator="arithmetic"/><feColorMatrix values="0 0 0 0 0.764706 0 0 0 0 0.741176 0 0 0 0 0.811765 0 0 0 1 0"/><feBlend in2="shape" result="effect1_innerShadow_18590_346"/></filter><filter id="l" width="7.38" height="7.352" x="11.026" y="12.248" color-interpolation-filters="sRGB" filterUnits="userSpaceOnUse"><feFlood flood-opacity="0" result="BackgroundImageFix"/><feBlend in="SourceGraphic" in2="BackgroundImageFix" result="shape"/><feColorMatrix in="SourceAlpha" result="hardAlpha" values="0 0 0 0 0 0 0 0 0 0 0 0 0 0 0 0 0 0 127 0"/><feOffset dx="-.4" dy=".4"/><feGaussianBlur stdDeviation=".375"/><feComposite in2="hardAlpha" k2="-1" k3="1" operator="arithmetic"/><feColorMatrix values="0 0 0 0 0.764706 0 0 0 0 0.741176 0 0 0 0 0.811765 0 0 0 1 0"/><feBlend in2="shape" result="effect1_innerShadow_18590_346"/></filter><filter id="m" width="7.807" height="7.354" x="19.315" y="12.248" color-interpolation-filters="sRGB" filterUnits="userSpaceOnUse"><feFlood flood-opacity="0" result="BackgroundImageFix"/><feBlend in="SourceGraphic" in2="BackgroundImageFix" result="shape"/><feColorMatrix in="SourceAlpha" result="hardAlpha" values="0 0 0 0 0 0 0 0 0 0 0 0 0 0 0 0 0 0 127 0"/><feOffset dx="-.4" dy=".4"/><feGaussianBlur stdDeviation=".375"/><feComposite in2="hardAlpha" k2="-1" k3="1" operator="arithmetic"/><feColorMatrix values="0 0 0 0 0.764706 0 0 0 0 0.741176 0 0 0 0 0.811765 0 0 0 1 0"/><feBlend in2="shape" result="effect1_innerShadow_18590_346"/></filter><linearGradient id="b" x1="16.003" x2="16.003" y1="5.637" y2="38.89" gradientUnits="userSpaceOnUse"><stop stop-color="#5CB7FF"/><stop offset="1" stop-color="#4878DD"/></linearGradient><linearGradient id="e" x1="28.753" x2="28.753" y1="4.563" y2="27.438" gradientUnits="userSpaceOnUse"><stop stop-color="#7FD9FF"/><stop offset="1" stop-color="#639DF4"/></linearGradient><linearGradient id="g" x1="28.467" x2="2.936" y1="4.125" y2="4.125" gradientUnits="userSpaceOnUse"><stop stop-color="#7DD8FF"/><stop offset="1" stop-color="#5DB6FF"/></linearGradient><radialGradient id="c" cx="0" cy="0" r="1" gradientTransform="matrix(-1.56249 1.46876 -1.71548 -1.82495 27.722 4.156)" gradientUnits="userSpaceOnUse"><stop stop-color="#7BD7FF"/><stop offset="1" stop-color="#7BD7FF" stop-opacity="0"/></radialGradient></defs></svg>
